Adwaita++-Light/panel/24/pia_tray_connecting.svg

<svg height="24" width="24" xmlns="http://www.w3.org/2000/svg">
  <g fill="#444">
    <path d="m12.5 4c-3.0372436 0-5.4995438 2.3276432-5.5 5.199219.00172.133675.00888.267238.021484.40039h-.021484v.400391h-1.1660156c-.4616667 0-.8339844.346455-.8339844.777344v5.445312c0 .430889.3723177.777344.8339844.777344h1.1660156v2.199219c0 .4432.3769338.800781.8457031.800781h2.9628909l1.267578-2h.847656l1.267578 2h2.962891c.468769 0 .845703-.357581.845703-.800781v-2.199219h1.166016c.461666 0 .833984-.346455.833984-.777344v-5.445312c0-.430889-.372318-.777344-.833984-.777344h-1.166016v-.400391h-.01758c.0113-.1332.01716-.266763.01758-.40039-.000456-2.8715758-2.462756-5.199219-5.5-5.199219zm0 2c1.932663-.0000001 3.5.9990235 3.5 3.976563-.000558.01498-.0012.03191-.002.04687l-6.998-.001949c-.0000931-.01497-.0000931-.02995 0-.04492 0-2.9775405 1.567337-3.9765642 3.5-3.976564zm-2.5 2v1h1v-1zm4 0v1h1v-1zm-5.5 4a1.5 1.5 0 0 1 1.5 1.5 1.5 1.5 0 0 1 -1.5 1.5 1.5 1.5 0 0 1 -1.5-1.5 1.5 1.5 0 0 1 1.5-1.5zm4 0a1.5 1.5 0 0 1 1.5 1.5 1.5 1.5 0 0 1 -1.5 1.5 1.5 1.5 0 0 1 -1.5-1.5 1.5 1.5 0 0 1 1.5-1.5zm4 0a1.5 1.5 0 0 1 1.5 1.5 1.5 1.5 0 0 1 -1.5 1.5 1.5 1.5 0 0 1 -1.5-1.5 1.5 1.5 0 0 1 1.5-1.5z" opacity=".3"/>
    <path d="m8 13v1h1v-1zm4 0v1h1v-1zm4 0v1h1v-1z"/>
  </g>
</svg>

<svg xmlns="http://www.w3.org/2000/svg" width="24" height="24" version="1.1">
 <defs>
  <style id="current-color-scheme" type="text/css">
   .ColorScheme-Text { color:#444444; } .ColorScheme-Highlight { color:#4285f4; }
  </style>
 </defs>
 <path style="opacity:0.3;fill:currentColor" class="ColorScheme-Text" d="M 12.5,4 C 9.4627564,4 7.0004562,6.3276432 7,9.199219 7.00172,9.332894 7.00888,9.466457 7.021484,9.599609 L 7,9.599609 7,10 5.8339844,10 C 5.3723177,10 5,10.346455 5,10.777344 l 0,5.445312 C 5,16.653545 5.3723177,17 5.8339844,17 L 7,17 7,19.199219 C 7,19.642419 7.3769338,20 7.8457031,20 l 2.9628909,0 1.267578,-2 0.847656,0 1.267578,2 2.962891,0 C 17.623066,20 18,19.642419 18,19.199219 L 18,17 19.166016,17 C 19.627682,17 20,16.653545 20,16.222656 l 0,-5.445312 C 20,10.346455 19.627682,10 19.166016,10 L 18,10 l 0,-0.400391 -0.01758,0 C 17.99372,9.466409 17.99958,9.332846 18,9.199219 17.999544,6.3276432 15.537244,4 12.5,4 Z m 0,2 c 1.932663,-1e-7 3.5,0.9990235 3.5,3.976563 -5.58e-4,0.01498 -0.0012,0.03191 -0.002,0.04687 L 9,10.021484 c -9.31e-5,-0.01497 -9.31e-5,-0.02995 0,-0.04492 C 9,6.9990235 10.567337,5.9999998 12.5,6 Z m -2.5,2 0,1 1,0 0,-1 -1,0 z m 4,0 0,1 1,0 0,-1 -1,0 z M 8.5,12 A 1.5,1.5 0 0 1 10,13.5 1.5,1.5 0 0 1 8.5,15 1.5,1.5 0 0 1 7,13.5 1.5,1.5 0 0 1 8.5,12 Z m 4,0 A 1.5,1.5 0 0 1 14,13.5 1.5,1.5 0 0 1 12.5,15 1.5,1.5 0 0 1 11,13.5 1.5,1.5 0 0 1 12.5,12 Z m 4,0 A 1.5,1.5 0 0 1 18,13.5 1.5,1.5 0 0 1 16.5,15 1.5,1.5 0 0 1 15,13.5 1.5,1.5 0 0 1 16.5,12 Z"/>
 <path style="fill:currentColor" class="ColorScheme-Text" d="m 8,13 0,1 1,0 0,-1 -1,0 z m 4,0 0,1 1,0 0,-1 -1,0 z m 4,0 0,1 1,0 0,-1 -1,0 z"/>
</svg>
